packages/ffe-icons/icons/filled/lg/signal_cellular_alt.svg

<svg xmlns="http://www.w3.org/2000/svg" height="40" viewBox="0 -960 960 960" width="40"><path d="M261.189-180.001q-17.239 0-29.213-12.041-11.975-12.04-11.975-29.24v-117.436q0-17.2 12.068-29.24 12.068-12.041 29.307-12.041 17.239 0 29.213 12.041 11.975 12.04 11.975 29.24v117.436q0 17.2-12.068 29.24-12.068 12.041-29.307 12.041Zm241.025 0q-17.239 0-29.213-12.041-11.974-12.04-11.974-29.24v-317.436q0-17.2 12.067-29.24 12.068-12.041 29.307-12.041 17.24 0 29.214 12.041 11.974 12.04 11.974 29.24v317.436q0 17.2-12.068 29.24-12.067 12.041-29.307 12.041Zm236.41 0q-17.239 0-29.213-12.041-11.974-12.04-11.974-29.24v-517.436q0-17.2 12.067-29.24 12.068-12.041 29.307-12.041 17.239 0 29.213 12.041 11.975 12.04 11.975 29.24v517.436q0 17.2-12.068 29.24-12.068 12.041-29.307 12.041Z"/></svg>

<svg xmlns="http://www.w3.org/2000/svg" viewBox="0 -960 960 960" width="32" height="32"><path d="M261.19-180q-17.24 0-29.21-12.04Q220-204.08 220-221.28v-117.44q0-17.2 12.07-29.24T261.38-380q17.24 0 29.21 12.04 11.97 12.04 11.97 29.24v117.44q0 17.2-12.06 29.24Q278.43-180 261.19-180Zm241.02 0q-17.24 0-29.21-12.04-11.97-12.04-11.97-29.24v-317.44q0-17.2 12.06-29.24Q485.16-580 502.4-580t29.21 12.04q11.98 12.04 11.98 29.24v317.44q0 17.2-12.07 29.24T502.21-180Zm236.41 0q-17.24 0-29.21-12.04-11.97-12.04-11.97-29.24v-517.44q0-17.2 12.06-29.24Q721.57-780 738.81-780t29.21 12.04Q780-755.92 780-738.72v517.44q0 17.2-12.07 29.24T738.62-180Z"/></svg>
